img/favicon/favicon.svg

<svg width="25" height="25" viewBox="0 0 25 25" fill="none" xmlns="http://www.w3.org/2000/svg">
<path d="M8.99498 14.8314L11.7747 8.42899H12.7073V10.2403L10.7346 14.8314H12.2052V14.0065C12.2052 13.8056 12.5399 13.7913 12.7073 13.8092V16.3379C12.2482 16.3379 12.1813 16.1825 12.2052 16.1047V15.3874H10.4656L6.16141 25H6L7.09397 21.6822C7.09397 21.6822 6.12554 21.3056 6.44835 20.4986C6.77116 19.6915 8.70803 15.3874 8.70803 15.3874H6.44835V14.8314H8.99498Z" fill="#333333"/>
<path d="M16.2403 14.8314L13.4605 8.42899H12.528V10.2403L14.5007 14.8314H13.0301V14.0065C13.0301 13.8056 12.6954 13.7913 12.528 13.8092V16.3379C12.9871 16.3379 13.054 16.1825 13.0301 16.1047V15.3874H14.7697L19.0739 25H19.2353L18.1413 21.6822C18.1413 21.6822 19.1098 21.3056 18.7869 20.4986C18.4641 19.6915 16.5273 15.3874 16.5273 15.3874H18.7869V14.8314H16.2403Z" fill="#333333"/>
<path fill-rule="evenodd" clip-rule="evenodd" d="M12.6356 7.49641C13.6855 7.49641 14.5366 6.6453 14.5366 5.59541C14.5366 4.54551 13.6855 3.6944 12.6356 3.6944C11.5857 3.6944 10.7346 4.54551 10.7346 5.59541C10.7346 6.6453 11.5857 7.49641 12.6356 7.49641ZM12.6356 8.53658C14.26 8.53658 15.5768 7.21978 15.5768 5.59541C15.5768 3.97104 14.26 2.65423 12.6356 2.65423C11.0112 2.65423 9.69443 3.97104 9.69443 5.59541C9.69443 7.21978 11.0112 8.53658 12.6356 8.53658Z" fill="#333333"/>
<path d="M12.0976 0H13.1736V2.83357H12.0976V0Z" fill="#333333"/>
</svg>

<svg width="25" height="25" fill="none" xmlns="http://www.w3.org/2000/svg"><path d="m8.995 14.831 2.78-6.402h.932v1.811l-1.972 4.591h1.47v-.824c0-.201.335-.216.502-.198v2.529c-.459 0-.526-.155-.502-.233v-.718h-1.74L6.162 25H6l1.094-3.318s-.968-.376-.646-1.183c.323-.807 2.26-5.112 2.26-5.112h-2.26v-.556h2.547Z" fill="#333"/><path d="M16.24 14.831 13.46 8.43h-.932v1.811l1.973 4.591h-1.47v-.824c0-.201-.336-.216-.503-.198v2.529c.46 0 .526-.155.502-.233v-.718h1.74L19.074 25h.161l-1.094-3.318s.969-.376.646-1.183c-.323-.807-2.26-5.112-2.26-5.112h2.26v-.556H16.24Z" fill="#333"/><path fill-rule="evenodd" clip-rule="evenodd" d="M12.636 7.496a1.901 1.901 0 1 0 0-3.802 1.901 1.901 0 0 0 0 3.802Zm0 1.04a2.941 2.941 0 1 0 0-5.882 2.941 2.941 0 0 0 0 5.883Z" fill="#333"/><path d="M12.098 0h1.076v2.834h-1.076V0Z" fill="#333"/></svg>
